public/cloud-icons/azure/compute/server-farm.svg

<?xml version="1.0" encoding="UTF-8" standalone="no"?>
<!-- Generated by Microsoft Visio, SVG Export Server Farm.svg Page-1 -->

<svg
   xmlns:dc="http://purl.org/dc/elements/1.1/"
   xmlns:cc="http://creativecommons.org/ns#"
   xmlns:rdf="http://www.w3.org/1999/02/22-rdf-syntax-ns#"
   xmlns:svg="http://www.w3.org/2000/svg"
   xmlns="http://www.w3.org/2000/svg"
   xmlns:sodipodi="http://sodipodi.sourceforge.net/DTD/sodipodi-0.dtd"
   xmlns:inkscape="http://www.inkscape.org/namespaces/inkscape"
   width="56.853153"
   height="56.700714"
   viewBox="0 0 56.853152 56.700715"
   xml:space="preserve"
   class="st6"
   version="1.1"
   id="svg108"
   sodipodi:docname="Server Farm.svg"
   style="font-size:12px;overflow:visible;color-interpolation-filters:sRGB;fill:none;fill-rule:evenodd;stroke-linecap:square;stroke-miterlimit:3"
   inkscape:version="0.92.5 (2060ec1f9f, 2020-04-08)"><metadata
   id="metadata112"><rdf:RDF><cc:Work
       rdf:about=""><dc:format>image/svg+xml</dc:format><dc:type
         rdf:resource="http://purl.org/dc/dcmitype/StillImage" /></cc:Work></rdf:RDF></metadata><sodipodi:namedview
   pagecolor="#ffffff"
   bordercolor="#666666"
   borderopacity="1"
   objecttolerance="10"
   gridtolerance="10"
   guidetolerance="10"
   inkscape:pageopacity="0"
   inkscape:pageshadow="2"
   inkscape:window-width="640"
   inkscape:window-height="480"
   id="namedview110"
   showgrid="false"
   inkscape:zoom="2.4486917"
   inkscape:cx="28.346461"
   inkscape:cy="14.175741"
   inkscape:window-x="0"
   inkscape:window-y="0"
   inkscape:window-maximized="0"
   inkscape:current-layer="svg108" />
	<style
   type="text/css"
   id="style2">
	<![CDATA[
		.st1 {fill:url(#grad0-6);stroke:none;stroke-linecap:butt;stroke-width:0.75}
		.st2 {fill:#003067;stroke:none;stroke-linecap:butt;stroke-width:0.75}
		.st3 {fill:#50e6ff;stroke:none;stroke-linecap:butt;stroke-width:0.75}
		.st4 {fill:url(#grad0-18);stroke:none;stroke-linecap:butt;stroke-width:0.75}
		.st5 {fill:#005ba1;stroke:none;stroke-linecap:butt;stroke-width:0.75}
		.st6 {fill:none;fill-rule:evenodd;font-size:12px;overflow:visible;stroke-linecap:square;stroke-miterlimit:3}
	]]>
	</style>

	<defs
   id="Patterns_And_Gradients">
		<linearGradient
   id="grad0-6"
   x1="0"
   y1="34.752551"
   x2="43.255993"
   y2="34.752551"
   gradientTransform="scale(0.80936761,1.2355325)"
   gradientUnits="userSpaceOnUse">
			<stop
   offset="0"
   stop-color="#b3b2b3"
   stop-opacity="1"
   id="stop4" />
			<stop
   offset="0.375"
   stop-color="#afaeaf"
   stop-opacity="1"
   id="stop6" />
			<stop
   offset="0.765"
   stop-color="#a2a2a2"
   stop-opacity="1"
   id="stop8" />
			<stop
   offset="1"
   stop-color="#979797"
   stop-opacity="1"
   id="stop10" />
		</linearGradient>
		<linearGradient
   id="grad0-18"
   x1="0"
   y1="69.496571"
   x2="29.44154"
   y2="69.496571"
   gradientTransform="scale(1.0265372,0.97414878)"
   gradientUnits="userSpaceOnUse">
			<stop
   offset="0"
   stop-color="#0078d4"
   stop-opacity="1"
   id="stop13" />
			<stop
   offset="0.155"
   stop-color="#1380da"
   stop-opacity="1"
   id="stop15" />
			<stop
   offset="0.53"
   stop-color="#3c91e5"
   stop-opacity="1"
   id="stop17" />
			<stop
   offset="0.82"
   stop-color="#559cec"
   stop-opacity="1"
   id="stop19" />
			<stop
   offset="1"
   stop-color="#5ea0ef"
   stop-opacity="1"
   id="stop21" />
		</linearGradient>
	</defs>
	<g
   id="g106"
   transform="translate(-5.66929,-5.6640269)">
		<title
   id="title25">Page-1</title>
		<g
   id="group11830-1"
   transform="translate(5.66929,-34.0157)">
			<title
   id="title27">Server Farm.11830</title>
			<g
   id="group11831-2">
				<title
   id="title29">Sheet.11831</title>
				<g
   id="shape11832-3"
   transform="translate(0,-3.25818)">
					<title
   id="title31">Sheet.11832</title>
					<path
   d="m 35.01,94.57 a 1.93241,1.91422 0 0 1 -2.02,1.81 H 2.02 A 1.93241,1.91422 0 0 1 0,94.57 V 44.75 a 1.93241,1.91422 0 0 1 2.01,-1.81 h 30.98 a 1.93241,1.91422 0 0 1 2.02,1.81 z"
   class="st1"
   id="path33"
   inkscape:connector-curvature="0"
   style="fill:url(#grad0-6);stroke:none;stroke-width:0.75;stroke-linecap:butt" />
				</g>
				<g
   id="shape11833-7"
   transform="translate(5.13737,-29.6804)">
					<title
   id="title36">Sheet.11833</title>
					<path
   d="m 0,92.21 a 4.01631,3.97851 0 0 1 3.81,-4.17 h 17.43 a 4.01631,3.97851 0 0 1 3.8,4.17 4.01631,3.97851 0 0 1 -3.8,4.17 H 3.81 A 4.01631,3.97851 0 0 1 0,92.21 Z"
   class="st2"
   id="path38"
   inkscape:connector-curvature="0"
   style="fill:#003067;stroke:none;stroke-width:0.75;stroke-linecap:butt" />
				</g>
				<g
   id="shape11834-9"
   transform="translate(5.13737,-42.0361)">
					<title
   id="title41">Sheet.11834</title>
					<path
   d="m 0,92.22 a 4.01631,3.97851 0 0 1 3.81,-4.16 h 17.43 a 4.01631,3.97851 0 0 1 3.8,4.16 4.01631,3.97851 0 0 1 -3.8,4.16 H 3.81 A 4.01631,3.97851 0 0 1 0,92.22 Z"
   class="st2"
   id="path43"
   inkscape:connector-curvature="0"
   style="fill:#003067;stroke:none;stroke-width:0.75;stroke-linecap:butt" />
				</g>
				<g
   id="shape11835-11"
   transform="translate(7.22464,-43.4034)">
					<title
   id="title46">Sheet.11835</title>
					<ellipse
   cx="2.81445"
   cy="93.589996"
   rx="2.81445"
   ry="2.7879601"
   class="st3"
   id="ellipse48"
   style="fill:#50e6ff;stroke:none;stroke-width:0.75;stroke-linecap:butt" />
				</g>
				<g
   id="shape11836-13"
   transform="translate(7.22464,-31.061)">
					<title
   id="title51">Sheet.11836</title>
					<ellipse
   cx="2.81445"
   cy="93.589996"
   rx="2.81445"
   ry="2.7879601"
   class="st3"
   id="ellipse53"
   style="fill:#50e6ff;stroke:none;stroke-width:0.75;stroke-linecap:butt" />
				</g>
				<g
   id="shape11837-15"
   transform="translate(22.3136)">
					<title
   id="title56">Sheet.11837</title>
					<path
   d="M 25.79,72.98 15.11,67.7 4.04,72.98 0,80.82 v 14.61 a 0.962837,0.953775 -180 0 0 0.962837,0.95044 L 29.26,96.38 a 0.962837,0.953775 -180 0 0 0.962837,-0.95044 L 30.22,80.82 Z"
   class="st4"
   id="path58"
   inkscape:connector-curvature="0"
   style="fill:url(#grad0-18);stroke:none;stroke-width:0.75;stroke-linecap:butt" />
				</g>
				<g
   id="shape11838-19"
   transform="translate(18.5868,-11.3386)">
					<title
   id="title61">Sheet.11838</title>
					<path
   d="M 1.35,96.38 A 1.47455,1.46068 0 0 1 0,94.31 L 4.75,84.04 a 1.47792,1.46401 0 0 1 0.64,-0.67 l 12.97,-6.91 a 1.47455,1.46068 0 0 1 1.42,0 l 12.53,6.91 A 1.46109,1.44734 0 0 1 32.9,84 l 5.21,10.26 a 1.4763527,1.4624559 0 1 1 -2.64,1.31 l -5,-9.86 L 19.05,79.4 7.22,85.71 2.69,95.52 a 1.47455,1.46068 0 0 1 -1.34,0.86 z"
   class="st3"
   id="path63"
   inkscape:connector-curvature="0"
   style="fill:#50e6ff;stroke:none;stroke-width:0.75;stroke-linecap:butt" />
				</g>
				<g
   id="shape11839-21"
   transform="translate(34.2783,-14.0698)">
					<title
   id="title66">Sheet.11839</title>
					<path
   d="m 0,95.43 a 0.959493,0.950462 -180 0 0 0.95947,0.95044 L 5.06,96.38 A 0.959493,0.950462 -180 0 0 6.01947,95.42956 L 6.02,91.09 A 0.959493,0.950462 -180 0 0 5.06053,90.13956 L 0.96,90.14 A 0.959493,0.950462 -180 0 0 5.3e-4,91.09044 Z"
   class="st5"
   id="path68"
   inkscape:connector-curvature="0"
   style="fill:#005ba1;stroke:none;stroke-width:0.75;stroke-linecap:butt" />
				</g>
				<g
   id="group11840-23"
   transform="translate(31.0464)">
					<title
   id="title71">Sheet.11840</title>
					<g
   id="shape11841-24"
   transform="translate(0.42082,-5.20241)">
						<title
   id="title73">Sheet.11841</title>
						<path
   d="m 5.82,96.38 5.81,-3.86 A 0.952737,0.94377 -180 0 0 11.09135,92.356591 L 0.54,92.36 a 0.95947,0.95044 -180 0 0 -0.53865,0.163409 z"
   class="st5"
   id="path75"
   inkscape:connector-curvature="0"
   style="fill:#005ba1;stroke:none;stroke-width:0.75;stroke-linecap:butt" />
					</g>
					<g
   id="shape11842-26"
   transform="translate(7.12701,-1.06716)">
						<title
   id="title78">Sheet.11842</title>
						<path
   d="m 5.35,96.38 v -7.1 L 0,92.83 Z"
   class="st5"
   id="path80"
   inkscape:connector-curvature="0"
   style="fill:#005ba1;stroke:none;stroke-width:0.75;stroke-linecap:butt" />
					</g>
					<g
   id="shape11843-28"
   transform="translate(0,-1.06716)">
						<title
   id="title83">Sheet.11843</title>
						<path
   d="M 5.35,92.83 0,89.28 v 7.1 z"
   class="st5"
   id="path85"
   inkscape:connector-curvature="0"
   style="fill:#005ba1;stroke:none;stroke-width:0.75;stroke-linecap:butt" />
					</g>
					<g
   id="shape11844-30"
   transform="translate(12.4327)">
						<title
   id="title88">Sheet.11844</title>
						<path
   d="M 0,96.38 H 0.04 V 96.31 Z"
   class="st5"
   id="path90"
   inkscape:connector-curvature="0"
   style="fill:#005ba1;stroke:none;stroke-width:0.75;stroke-linecap:butt" />
					</g>
					<g
   id="shape11845-32">
						<title
   id="title93">Sheet.11845</title>
						<path
   d="m 0,96.31 v 0.07 h 0.05 z"
   class="st5"
   id="path95"
   inkscape:connector-curvature="0"
   style="fill:#005ba1;stroke:none;stroke-width:0.75;stroke-linecap:butt" />
					</g>
					<g
   id="shape11846-34"
   transform="translate(0.171695)">
						<title
   id="title98">Sheet.11846</title>
						<path
   d="M 0,96.38 H 12.13 L 6.07,92.36 Z"
   class="st5"
   id="path100"
   inkscape:connector-curvature="0"
   style="fill:#005ba1;stroke:none;stroke-width:0.75;stroke-linecap:butt" />
					</g>
				</g>
			</g>
		</g>
	</g>
</svg>

<svg xmlns="http://www.w3.org/2000/svg" xml:space="preserve" width="56.853" height="56.701" style="font-size:12px;overflow:visible;color-interpolation-filters:sRGB;fill-rule:evenodd;stroke-linecap:square;stroke-miterlimit:3" viewBox="0 0 56.853 56.701"><defs><linearGradient id="a" x1="0" x2="43.256" y1="34.753" y2="34.753" gradientTransform="scale(.80937 1.23553)" gradientUnits="userSpaceOnUse"><stop offset="0" stop-color="#b3b2b3"/><stop offset=".375" stop-color="#afaeaf"/><stop offset=".765" stop-color="#a2a2a2"/><stop offset="1" stop-color="#979797"/></linearGradient><linearGradient id="b" x1="0" x2="29.442" y1="69.497" y2="69.497" gradientTransform="scale(1.02654 .97415)" gradientUnits="userSpaceOnUse"><stop offset="0" stop-color="#0078d4"/><stop offset=".155" stop-color="#1380da"/><stop offset=".53" stop-color="#3c91e5"/><stop offset=".82" stop-color="#559cec"/><stop offset="1" stop-color="#5ea0ef"/></linearGradient></defs><g transform="translate(-5.67 -5.664)"><title>Page-1</title><g transform="translate(5.67 -34.016)"><title>Server Farm.11830</title><title>Sheet.11831</title><g transform="translate(0 -3.258)"><title>Sheet.11832</title><path d="M35.01 94.57a1.932 1.914 0 0 1-2.02 1.81H2.02A1.932 1.914 0 0 1 0 94.57V44.75a1.932 1.914 0 0 1 2.01-1.81h30.98a1.932 1.914 0 0 1 2.02 1.81z" style="fill:url(#a);stroke:none;stroke-width:.75;stroke-linecap:butt"/></g><g transform="translate(5.137 -29.68)"><title>Sheet.11833</title><path d="M0 92.21a4.016 3.979 0 0 1 3.81-4.17h17.43a4.016 3.979 0 0 1 3.8 4.17 4.016 3.979 0 0 1-3.8 4.17H3.81A4.016 3.979 0 0 1 0 92.21" style="fill:#003067;stroke:none;stroke-width:.75;stroke-linecap:butt"/></g><g transform="translate(5.137 -42.036)"><title>Sheet.11834</title><path d="M0 92.22a4.016 3.979 0 0 1 3.81-4.16h17.43a4.016 3.979 0 0 1 3.8 4.16 4.016 3.979 0 0 1-3.8 4.16H3.81A4.016 3.979 0 0 1 0 92.22" style="fill:#003067;stroke:none;stroke-width:.75;stroke-linecap:butt"/></g><g transform="translate(7.225 -43.403)"><title>Sheet.11835</title><ellipse cx="2.814" cy="93.59" rx="2.814" ry="2.788" style="fill:#50e6ff;stroke:none;stroke-width:.75;stroke-linecap:butt"/></g><g transform="translate(7.225 -31.061)"><title>Sheet.11836</title><ellipse cx="2.814" cy="93.59" rx="2.814" ry="2.788" style="fill:#50e6ff;stroke:none;stroke-width:.75;stroke-linecap:butt"/></g><g transform="translate(22.314)"><title>Sheet.11837</title><path d="M25.79 72.98 15.11 67.7 4.04 72.98 0 80.82v14.61a.963.954-180 0 0 .963.95H29.26a.963.954-180 0 0 .963-.95l-.003-14.61Z" style="fill:url(#b);stroke:none;stroke-width:.75;stroke-linecap:butt"/></g><g transform="translate(18.587 -11.339)"><title>Sheet.11838</title><path d="M1.35 96.38A1.475 1.46 0 0 1 0 94.31l4.75-10.27a1.478 1.464 0 0 1 .64-.67l12.97-6.91a1.475 1.46 0 0 1 1.42 0l12.53 6.91a1.461 1.447 0 0 1 .59.63l5.21 10.26a1.476 1.462 0 1 1-2.64 1.31l-5-9.86-11.42-6.31-11.83 6.31-4.53 9.81a1.475 1.46 0 0 1-1.34.86" style="fill:#50e6ff;stroke:none;stroke-width:.75;stroke-linecap:butt"/></g><g transform="translate(34.278 -14.07)"><title>Sheet.11839</title><path d="M0 95.43a.96.95-180 0 0 .96.95h4.1a.96.95-180 0 0 .96-.95v-4.34a.96.95-180 0 0-.96-.95H.96a.96.95-180 0 0-.96.95Z" style="fill:#005ba1;stroke:none;stroke-width:.75;stroke-linecap:butt"/></g><g transform="translate(31.046)"><title>Sheet.11840</title><g transform="translate(.42 -5.202)"><title>Sheet.11841</title><path d="m5.82 96.38 5.81-3.86a.953.944-180 0 0-.539-.163L.54 92.36a.96.95-180 0 0-.539.163z" style="fill:#005ba1;stroke:none;stroke-width:.75;stroke-linecap:butt"/></g><g transform="translate(7.127 -1.067)"><title>Sheet.11842</title><path d="M5.35 96.38v-7.1L0 92.83Z" style="fill:#005ba1;stroke:none;stroke-width:.75;stroke-linecap:butt"/></g><g transform="translate(0 -1.067)"><title>Sheet.11843</title><path d="M5.35 92.83 0 89.28v7.1z" style="fill:#005ba1;stroke:none;stroke-width:.75;stroke-linecap:butt"/></g><g transform="translate(12.433)"><title>Sheet.11844</title><path d="M0 96.38h.04v-.07Z" style="fill:#005ba1;stroke:none;stroke-width:.75;stroke-linecap:butt"/></g><title>Sheet.11845</title><path d="M0 96.31v.07h.05z" style="fill:#005ba1;stroke:none;stroke-width:.75;stroke-linecap:butt"/><g transform="translate(.172)"><title>Sheet.11846</title><path d="M0 96.38h12.13l-6.06-4.02Z" style="fill:#005ba1;stroke:none;stroke-width:.75;stroke-linecap:butt"/></g></g></g></g></svg>
